svg/Octicons/briefcase.svg

<svg xmlns="http://www.w3.org/2000/svg" viewBox="0 0 1024 1024"><path d="m896 192h-256v-66c0-34.2-27.8-62-62-62h-132c-34.2 0-62 27.8-62 62v66h-256c-35.3 0-64 28.7-64 64v512c0 35.3 28.7 64 64 64h768c35.3 0 64-28.7 64-64v-512c0-35.3-28.7-64-64-64m-448-48c0-8.8 7.2-16 16-16h96c8.8 0 16 7.2 16 16v48h-128v-48m448 368h-320v64h-128v-64h-320v-256h64v192h640v-192h64v256"/></svg>

<svg height="1024" width="1024" xmlns="http://www.w3.org/2000/svg">
  <path d="M896 192H640v-66c0-34.2-27.8-62-62-62H446c-34.2 0-62 27.8-62 62v66H128c-35.3 0-64 28.7-64 64v512c0 35.3 28.7 64 64 64h768c35.3 0 64-28.7 64-64V256C960 220.70000000000005 931.3 192 896 192zM448 144c0-8.8 7.2-16 16-16h96c8.8 0 16 7.2 16 16v48H448V144zM896 512H576v64H448v-64H128V256h64v192h640V256h64V512z" />
</svg>
